X:61
T:Delgaty Ice House
C:"An auld Tune"
S:Petrie's Second Collection of Strathspey Reels and Country Dances &c.
Z:Steve Wyrick <sjwyrick'at'gmail'dot'com>, 6/11/04
N:Petrie's Second Collection, page 21
% Gore's Index has no other citation for this tune
L:1/8
M:C
R:Strathspey
K:D
"^Slow"
A,|D>EFF F>EDF |A2 (B/A/G/F/) FEEF|D>EFF  F>ED>F|B>cdB       AFF:|
g |fae>f dfBd  |B/A/G/F/ dF   FEEg|f>ae>f d>fB>d|B/A/G/F/ dB AFFg|
  f>ae>g d>fB>d|B/A/G/F/ d>F  FEEF|D>EFF  F>EDF |B>cd>B      AFF|]
